X: 1
T: the Godfather Waltz   [Em]
C: Nino Rota
R: waltz
Z: 1999 John Chambers <jc:trillian.mit.edu>
S: http://www.musiklehre-fuer-gitarre.de/musicbooks/Gitarre/The%20Godfather%20Waltz-[12].gif
M: 3/4
L: 1/8
K: Em
|:\
"Em"e4 ^de | =f4 e2 | "Am"e2 c4- | c6 |\
e4 ^de | =f4 e2 | "Em"e2 B4- | B6 |
"Em"e4 ^de | g4 e2 | "B7"^d4 f2 | "Em"e6 |\
"Am"c2 B2 c2 | e4 ^d2 | "Em"B6- | B6- |
"B7"B6- | B2 ^c^d ef | "Em"g6- | "C"g6 |\
"Em"g4 fe | "B7"^d4 f2 | "Em"e6- | e6 :|
"Em"e2 ^d2 e2 | e2 ^d2 e2 | "Em"e2 ^d2 e2 | =f2 e2 d2 |\
"Am"c2 B2 A2 | ^G4 A2 | "E"B6- | B6 |
"Am"e2 ^d2 e2 | e2 ^d2 e2 | "Em"e2 ^d2 e2 | g2 f2 e2 |\
"Bm"d2 ^c2 B2 | "F#7"^A4 B2 | "Bm"B6- | "B7"B4 z2 |]
"Am"A4 GA | _B4 A2 | "Dm"A2 =F4- | F4 z2 |\
A4 ^GA | _B4 A2 | "Am"A2 E4- | E4 z2 |
A4 ^GA | c4 A2 | "E"^G4 B2 | "Am"A6 |\
"Dm"=F2 E2 F2 | A4 ^G2 | "Am"E6- | E4 z2 |
"E"E6- | E2 F^G AB | "Am"c6- | "F"c6 |\
"Am"c2 B2 A2 | "E"^G4 A2 | "Am"A6- | A6 |]
